X: 20891
M: 2/4
L: 1/16
K: F
V: 1 name="4"
(3(cdc) |\
c>dc>B A>GA>B | c>dc>A f3e | d2d>c (g3f) | e>fd>e c>BA>B |\
c>dc>B A>GA>B | c>dc>A fed^c | d>fe>d c>ee>g | f2a2"^D.C."f2 |]


